svgs/checkbox-unselected.svg

<!-- Generated by IcoMoon.io -->
<svg version="1.1" xmlns="http://www.w3.org/2000/svg" width="1500" height="1500" viewBox="0 0 1500 1500">
<title>checkbox-unselected</title>
<path d="M1332.031 0c89.843 0 167.969 78.125 167.969 167.969v1164.062c0 89.843-78.125 167.969-167.969 167.969h-1164.062c-89.843 0-167.969-78.125-167.969-167.969v-1164.062c0-89.843 78.125-167.969 167.969-167.969h1164.062zM1332.031 167.969h-1164.062v1164.062h1164.062v-1164.062z"></path>
</svg>

<svg xmlns="http://www.w3.org/2000/svg" width="1500" height="1500" viewBox="0 0 1500 1500"><path d="M1332.031 0C1421.874 0 1500 78.125 1500 167.969v1164.062c0 89.843-78.125 167.969-167.969 167.969H167.969C78.126 1500 0 1421.875 0 1332.031V167.969C0 78.126 78.125 0 167.969 0h1164.062zm0 167.969H167.969v1164.062h1164.062V167.969z"/></svg>
